X: 42397
T: Wentworth House
R: polka
M: 2/4
K: Dmajor
|:A/|d>e dA|df a2|gg/a/ f>g|ee/f/ d/c/B/A/|
dd/e/ d/c/B/A/|d/e/f/g/ a2|gg/a/ ff/g/|f/e/d/c/ d3/2:|
|:f/|a2 b/a/g/f/|g2 a/g/f/e/|f2 g/f/e/d/|c/d/e/f/ eA|
[1 aa b/a/g/f/|gg a/g/f/e/|ff g/f/e/d/|c/d/e d3/2:|
[2 dd/e/ dA|df a2|g>a ff/g/|f/e/d/c/ d3/2||

